src/view/frontend/web/svg/heroicons/outline/microphone.svg

<svg  viewBox="0 0 24 24" fill="none" stroke="currentColor" xmlns="http://www.w3.org/2000/svg">
<path d="M19 11C19 14.866 15.866 18 12 18M12 18C8.13401 18 5 14.866 5 11M12 18V22M12 22H8M12 22H16M12 14C10.3431 14 9 12.6569 9 11V5C9 3.34315 10.3431 2 12 2C13.6569 2 15 3.34315 15 5V11C15 12.6569 13.6569 14 12 14Z"  stroke-width="2" stroke-linecap="round" stroke-linejoin="round"/>
</svg>

<svg xmlns="http://www.w3.org/2000/svg" fill="none" stroke="currentColor" viewBox="0 0 24 24"><path stroke-linecap="round" stroke-linejoin="round" stroke-width="2" d="M19 11a7 7 0 0 1-7 7m0 0a7 7 0 0 1-7-7m7 7v4m0 0H8m4 0h4m-4-8a3 3 0 0 1-3-3V5a3 3 0 1 1 6 0v6a3 3 0 0 1-3 3Z"/></svg>
